X:488
T:Reel 488
M:4/4
K:Gmaj
L:1/8
G2BG dGBG|AFDG FDFD|G2BG dGBd|cAFG AGG2:|g2gg ggag|fdde fgaf|g2gg fgfd|fdcA AGG2|g2gg gfge|fdde fga2|bgaf gfeg|fdcA AGG2|
